svg/resize_vertical.svg

<svg xmlns="http://www.w3.org/2000/svg" viewBox="0 0 32 32" enable-background="new 0 0 32 32"><path d="M 16 2.09375 L 15.28125 2.78125 L 7.28125 10.78125 L 8.71875 12.21875 L 15 5.9375 L 15 26.0625 L 8.71875 19.78125 L 7.28125 21.21875 L 15.28125 29.21875 L 16 29.90625 L 16.71875 29.21875 L 24.71875 21.21875 L 23.28125 19.78125 L 17 26.0625 L 17 5.9375 L 23.28125 12.21875 L 24.71875 10.78125 L 16.71875 2.78125 L 16 2.09375 z" color="#000" overflow="visible" enable-background="accumulate"/></svg>

<svg xmlns="http://www.w3.org/2000/svg" viewBox="0 0 32 32"><path style="text-indent:0;text-align:start;line-height:normal;text-transform:none;block-progression:tb;-inkscape-font-specification:Bitstream Vera Sans" d="M16 2.094l-.72.687-8 8 1.44 1.44L15 5.936v20.125l-6.28-6.28-1.44 1.437 8 8 .72.686.72-.687 8-8-1.44-1.44L17 26.063V5.938l6.28 6.282 1.44-1.44-8-8-.72-.686z" color="#000" overflow="visible" font-family="Bitstream Vera Sans"/></svg>
